packages/ui/public/icons/calendar-minus.svg

<svg width="42" height="42" viewBox="0 0 42 42" fill="none" xmlns="http://www.w3.org/2000/svg">
<g opacity="0.5">
<path opacity="0.4" d="M15.75 26.25H26.25" stroke="white" stroke-width="3.5" stroke-linecap="round" stroke-linejoin="round"/>
<path d="M36.75 14H5.25H36.75ZM28 3.5V8.75V3.5ZM14 3.5V8.75V3.5ZM13.65 38.5H28.35C31.2904 38.5 32.7603 38.5 33.8835 37.9278C34.8714 37.4245 35.6745 36.6214 36.1778 35.6335C36.75 34.5103 36.75 33.0404 36.75 30.1V15.4C36.75 12.4597 36.75 10.9896 36.1778 9.86655C35.6745 8.8787 34.8714 8.07555 33.8835 7.57222C32.7603 7 31.2904 7 28.35 7H13.65C10.7097 7 9.23958 7 8.11655 7.57222C7.1287 8.07555 6.32555 8.8787 5.82222 9.86655C5.25 10.9896 5.25 12.4597 5.25 15.4V30.1C5.25 33.0404 5.25 34.5103 5.82222 35.6335C6.32555 36.6214 7.1287 37.4245 8.11655 37.9278C9.23958 38.5 10.7097 38.5 13.65 38.5Z" stroke="white" stroke-width="3.5" stroke-linecap="round" stroke-linejoin="round"/>
</g>
</svg>

<svg width="42" height="42" fill="none" xmlns="http://www.w3.org/2000/svg"><g opacity=".5" stroke="#fff" stroke-width="3.5" stroke-linecap="round" stroke-linejoin="round"><path opacity=".4" d="M15.75 26.25h10.5"/><path d="M36.75 14H5.25h31.5ZM28 3.5v5.25V3.5Zm-14 0v5.25V3.5Zm-.35 35h14.7c2.94 0 4.41 0 5.533-.572a5.249 5.249 0 0 0 2.295-2.294c.572-1.124.572-2.594.572-5.534V15.4c0-2.94 0-4.41-.572-5.533a5.25 5.25 0 0 0-2.294-2.295C32.76 7 31.29 7 28.35 7h-14.7c-2.94 0-4.41 0-5.533.572a5.25 5.25 0 0 0-2.295 2.295C5.25 10.99 5.25 12.46 5.25 15.4v14.7c0 2.94 0 4.41.572 5.533a5.25 5.25 0 0 0 2.295 2.295c1.123.572 2.593.572 5.533.572Z"/></g></svg>
